X: 14750
T: Gan Ainm
R: reel
M: 4/4
K: Amajor
|:c3 c2 BAB|cBB/B/A F3 A|EAA/A/E ABce|fBB/B/B GABd|
c3 c2 BAB|cBB/B/A F3 A|EAA/A/A AB/c/fc|1 ecBc A2 z2:|2 ecBc ABce||
aef/g/a baga|eff/f/e fgaf|ecc/c/c acc/c/A|BAGA Bceg|
aef/g/a baga|eff/f/e fgaf|ecc/c/c acc/c/A|BAGB ABce|
aef/g/a baga|eff/f/e fgaf|ecc/c/c acc/c/A|ABc BB/B/A FA|
c3 c2 BAB|cBB/B/A F3 A|EAA/A/A AB/c/fc|ecBc A2 z2||

